FINK
CUT[IN EINEM THAL BEI ARMEN HIRTEN]
REG[Europa, Mitteleuropa, Deutschland]
KEY[F0303  16 Bb 4/4]
MEL[-5_-4#_-5_  1___0_1_-7_1_  1#_2_2__0_
    4_3_2_  1__-7_1_2__5_4_  3___0_
    3_4_5_  5__4_3_5__4_3_  2_.44__0_
    4_3_2_  1__.1_2__5_4_  3___0_
    4_3_2_  5__(6_4_2_)1__(3_2_1_)  1___0_ //] >>
FCT[Jugend - Lied]
